!!!OTL: Ansingelied an den Fastnachtstagen (216), S. 469
!!!id: T0398
**kern
*clefG2
*k[]
*e:
{8g
=1
8g
8g
8a
8a
=2
4g
4e}
=3
{8g
8g
8a
8a
=4
4g
4e}
=5
{8g
8g
8a
8a
=6
8g
8f
4e}
=7
{8g
8g
8a
8a
=8
8g
8f
8e}
==
*-
!!!minrhy: 8
!!!meters: 2/4 ]  ZZ[4
!!!cut: Ansingelied an den Fastnachtstagen (216), S. 469
!!!reg: Luxemburg
!!!trd: Singendes Volk, Esch-Alzette, 1937 posth.
!!!rhy1: X  XXXX  X_X_
!!!rhy2: XXXX  X_X_
!!!key: T0398  08  E 2/4 ]  ZZ[4
!!!mod: VIERTONSKALA ]  AMBITUS[4
!!!kad: 1111
!!!akz: 3b3b_3b3b_3b3b_3b3b_
!!!fot: 'a__av_av_av_
!!!for: 'a__av_b__bv_
!!!fok: '\__\__\__\__
!! PHRAS[VORWIEGEND VOLLTAKTIG]
!!!fkt1: Ansingelied f&uuml;r Volks- und Festtage,
!!!fkt2: Kinderlied, erweiterter Kinderliedterno;
!!!fkt3: Reuland, 1908; Junglinster um 1890,
!!!fkt4: von Kindern, beim Heischen von Fastnachtseiern
!! THILL; Mathias
!! PR[23] 2K[0] 2G[30] 3K[5] 3G[0] 4A[5] 4Ü[0] 5A[0] 6K[0] 6G[0]
!! 7K[0] 7G[0] 8A[0] MEHR[0] SI[40] ABS[43] SR[30] SP[9]
!! ST[18] 2k[5] 2g[21] 3k[0] 3g[7] 4d[2] 4ü[0] 5d[0] 6k[0] 6g[2]
!! 7k[0] 7g[0] 8d[0] mehr[0] si[37] dm[+3] sr[26] sp[12]
!! 1F[57] 2F[39] 3F[0] 4F[0] LF[0] 2P[4] 3P[0] 4P[0] TRI[0] DF[3] AB[49]
!! TF[0] U3K[0] U3[0] U4[0] U4Ü[0] U5[5] U6K[0] U6[0] U7K[0] U7[0]
!! N1[27] N2K[0] N2[27] N3K[0] N3[32] N4[5] N4Ü[0] N5[5] N6K[0] N6[0]
!!!n7k: 0] N7[0] O1[0] O2K[0] O2[0] O3K[0] O3[0] HÖ[0
!!!RNB: symbol: &uuml;  = u umlaut (UTF-8: Ã¼)
